Adwaita++-Light/panel/16/weather-clouds-night.svg

<svg height="16" width="16" xmlns="http://www.w3.org/2000/svg">
  <path d="m7.736.9962c-2.7628.1015-5.3087 1.8046-6.3125 4.5625-.52416 1.4403-.54376 2.9423-.1582 4.3163.4037-1.318 1.4844-2.333 2.8379-2.683.17-.2907.3715-.5601.5898-.8129.0105-.7103.1304-1.4286.3867-2.1329.5142-1.4126 1.4745-2.5083 2.6563-3.25zm.35 4.754c-1.5537 0-2.8764.9509-3.4457 2.2968-1.4459.215-2.5547 1.447-2.5547 2.953 0 1.657 1.3431 3 3 3h6.3754c1.449 0 2.625-1.175 2.625-2.625 0-1.347-1.013-2.451-2.321-2.601-.341-1.72-1.859-3.0238-3.679-3.0238z" fill="#444"/>
</svg>

<svg xmlns="http://www.w3.org/2000/svg" width="16" height="16" version="1.1">
 <defs>
  <style id="current-color-scheme" type="text/css">
   .ColorScheme-Text { color:#444444; } .ColorScheme-Highlight { color:#4285f4; }
  </style>
 </defs>
 <path style="fill:currentColor" class="ColorScheme-Text" d="M 7.736,0.9962 C 4.9732,1.0977 2.4273,2.8008 1.4235,5.5587 0.89934,6.999 0.87974,8.501 1.2653,9.875 1.669,8.557 2.7497,7.542 4.1032,7.192 4.2732,6.9013 4.4747,6.6319 4.693,6.3791 4.7035,5.6688 4.8234,4.9505 5.0797,4.2462 5.5939,2.8336 6.5542,1.7379 7.736,0.9962 Z M 8.086,5.7502 C 6.5323,5.7502 5.2096,6.7011 4.6403,8.047 3.1944,8.262 2.0856,9.494 2.0856,11 2.0856,12.657 3.4287,14 5.0856,14 H 11.461 C 12.91,14 14.086,12.825 14.086,11.375 14.086,10.028 13.073,8.924 11.765,8.774 11.424,7.054 9.906,5.7502 8.086,5.7502 Z"/>
</svg>
